X:208
T: Fekete kendőt kötök a fejemre
M:4/4
L:1/4
K:Bb
C/E/C/E/ G/F/C/E/ | D<C C z |
E/E/G/G/ B/B/c/c/ | B<G G z |
E/E/G/G/ B/B/c/c/ | B<G F z |
C/E/C/E/ G/F/C/E/ | D<C C z |

